build/category/BarChartSolid.svg

<svg xmlns="http://www.w3.org/2000/svg" fill="none" viewBox="0 0 24 24" focusable="false"><path d="M0 0H24V24H0z" transform="matrix(1 0 0 -1 0 24)"/><path fill="#74767B" d="M6.80027 7.02637C5.72395 7.02637 4.85142 7.8989 4.85142 8.97522L4.85142 18.6947L4.02988 18.6947C3.6709 18.6947 3.37988 18.9857 3.37988 19.3447C3.37988 19.7037 3.6709 19.9947 4.02988 19.9947L5.46506 19.9947C5.49336 19.9982 5.52218 20 5.55142 20L8.04912 20C8.07836 20 8.10718 19.9982 8.13547 19.9947L10.6628 19.9947C10.6911 19.9982 10.7199 20 10.7492 20L13.249 20C13.2782 20 13.3071 19.9982 13.3354 19.9947L15.8625 19.9947C15.8908 19.9982 15.9196 20 15.9489 20L18.4487 20C18.478 20 18.5068 19.9982 18.5351 19.9947L19.9952 19.9947C20.3541 19.9947 20.6452 19.7037 20.6452 19.3447C20.6452 18.9857 20.3541 18.6947 19.9952 18.6947L19.1487 18.6947L19.1487 5.94992C19.1487 4.87301 18.2757 4 17.1988 4C16.1219 4 15.2489 4.87301 15.2489 5.94992L15.2489 18.6947L13.949 18.6947L13.949 11.9968C13.949 10.9199 13.076 10.0469 11.9991 10.0469C10.9222 10.0469 10.0492 10.9199 10.0492 11.9968L10.0492 18.6947L8.74912 18.6947L8.74912 8.97522C8.74912 7.8989 7.87659 7.02637 6.80027 7.02637Z"/><path fill="#74767B" fill-rule="evenodd" d="M8.74912 17.3947L8.74912 8.97522C8.74912 7.8989 7.87659 7.02637 6.80027 7.02637C5.72395 7.02637 4.85142 7.8989 4.85142 8.97522L4.85142 18.6947L4.03109 18.6947L4.02988 18.6947C3.6709 18.6947 3.37988 18.9857 3.37988 19.3447C3.37988 19.7037 3.6709 19.9947 4.02988 19.9947L5.46506 19.9947C5.49336 19.9982 5.52218 20 5.55142 20L8.04912 20C8.07836 20 8.10718 19.9982 8.13547 19.9947L10.6628 19.9947C10.6911 19.9982 10.7199 20 10.7492 20L13.249 20C13.2782 20 13.3071 19.9982 13.3354 19.9947L15.8625 19.9947C15.8908 19.9982 15.9196 20 15.9489 20L18.4487 20C18.478 20 18.5068 19.9982 18.5351 19.9947L19.9952 19.9947C20.3541 19.9947 20.6452 19.7037 20.6452 19.3447C20.6452 18.9857 20.3541 18.6947 19.9952 18.6947L19.994 18.6947L19.1487 18.6947L19.1487 5.94992C19.1487 4.87301 18.2757 4 17.1988 4C16.1219 4 15.2489 4.87301 15.2489 5.94992L15.2489 18.6947L13.949 18.6947L13.949 11.9968C13.949 11.9891 13.949 11.9814 13.9489 11.9737C13.9365 10.9074 13.0683 10.0469 11.9991 10.0469C10.9222 10.0469 10.0492 10.9199 10.0492 11.9968L10.0492 18.6947L10.0491 18.6947L8.74917 18.6947L8.74912 18.6947L8.74912 17.3947ZM7.44912 18.7L7.44912 8.97522C7.44912 8.88563 7.43328 8.8026 7.40161 8.72614C7.36994 8.64967 7.32242 8.57976 7.25908 8.51641C7.19573 8.45306 7.12582 8.40555 7.04935 8.37388C6.97289 8.34221 6.88986 8.32637 6.80027 8.32637C6.71068 8.32637 6.62765 8.34221 6.55118 8.37388C6.47472 8.40555 6.40481 8.45306 6.34146 8.51641C6.27811 8.57976 6.2306 8.64967 6.19893 8.72614C6.16725 8.8026 6.15142 8.88563 6.15142 8.97522L6.15142 18.7L7.44912 18.7ZM11.3492 18.7L12.649 18.7L12.649 11.9968C12.649 11.9071 12.6331 11.8239 12.6014 11.7473C12.5697 11.6707 12.5221 11.6007 12.4587 11.5372C12.3952 11.4738 12.3252 11.4262 12.2486 11.3945C12.172 11.3627 12.0888 11.3469 11.9991 11.3469C11.9094 11.3469 11.8262 11.3627 11.7496 11.3945C11.673 11.4262 11.603 11.4738 11.5395 11.5372C11.4761 11.6007 11.4285 11.6707 11.3968 11.7473C11.365 11.8239 11.3492 11.9071 11.3492 11.9968L11.3492 18.7ZM16.5489 18.7L17.8487 18.7L17.8487 5.94992C17.8487 5.86018 17.8329 5.77702 17.8011 5.70042C17.7694 5.62383 17.7218 5.55381 17.6584 5.49036C17.5949 5.4269 17.5249 5.37931 17.4483 5.34759C17.3717 5.31586 17.2885 5.3 17.1988 5.3C17.1091 5.3 17.0259 5.31586 16.9493 5.34759C16.8727 5.37932 16.8027 5.42691 16.7392 5.49036C16.6758 5.55381 16.6282 5.62383 16.5965 5.70043C16.5647 5.77702 16.5489 5.86018 16.5489 5.94992L16.5489 18.7Z"/></svg>

<svg xmlns="http://www.w3.org/2000/svg" fill="none" viewBox="0 0 24 24" focusable="false"><g fill="#74767B"><path d="M6.8 7.02c-1.08 0-1.95.87-1.95 1.95v9.72h-.83c-.35 0-.65.29-.65.65s.3.65.65.65h1.44c.03 0 .06.01.09.01h2.49c.03 0 .06-.01.09-.01h2.53c.03 0 .06.01.08.01h2.5c.03 0 .06-.01.09-.01h2.53c.03 0 .05.01.08.01h2.5c.03 0 .06-.01.09-.01h1.46c.36 0 .65-.29.65-.65s-.29-.65-.65-.65h-.85V5.94a1.95 1.95 0 0 0-3.9 0v12.75h-1.3v-6.7c0-1.08-.87-1.95-1.95-1.95-1.07 0-1.95.87-1.95 1.95v6.7h-1.3V8.97c0-1.08-.87-1.95-1.94-1.95"/><path fill-rule="evenodd" d="M8.74 17.39V8.97a1.944 1.944 0 1 0-3.89 0v9.72h-.83c-.35 0-.65.29-.65.65s.3.65.65.65h1.44c.03 0 .06.01.09.01h2.49c.03 0 .06-.01.09-.01h2.53c.03 0 .06.01.08.01h2.5c.03 0 .06-.01.09-.01h2.53c.03 0 .05.01.08.01h2.5c.03 0 .06-.01.09-.01h1.46c.36 0 .65-.29.65-.65s-.29-.65-.65-.65h-.85V5.94a1.95 1.95 0 0 0-3.9 0v12.75h-1.3v-6.72a1.95 1.95 0 0 0-1.95-1.93c-1.07 0-1.95.87-1.95 1.95v6.7h-1.3zm-1.3 1.31V8.97q0-.13-.04-.25-.05-.11-.15-.21-.09-.09-.21-.14-.11-.05-.24-.05-.14 0-.25.05-.12.05-.21.14-.1.1-.15.21-.04.12-.04.25v9.73zm3.9 0h1.3v-6.71q0-.13-.04-.25-.05-.11-.15-.21-.09-.09-.21-.14-.11-.05-.25-.05-.13 0-.25.05-.11.05-.21.14-.09.1-.14.21-.05.12-.05.25zm5.2 0h1.3V5.94q0-.13-.04-.24-.05-.12-.15-.21-.09-.1-.21-.15-.11-.05-.25-.05-.13 0-.25.05-.11.05-.21.15-.09.09-.14.21-.05.11-.05.24z"/></g></svg>
